X:1
T:Onward Roll the Ages
T:Onward Roll the Ages
T:James Ramsey Murray
T:Henry Melville King, 1888
T:Public Domain Courtesy of the Cyber Hymnal™
C:James Ramsey Murray
Z:Public Domain
Z:Courtesy of the Cyber Hymnal™
%%score ( 1 2 ) ( 3 4 )
L:1/8
Q:1/4=82
M:2/4
K:Bb
V:1 treble 
V:2 treble 
V:3 bass 
V:4 bass 
V:1
 [DB]>[DB] [DB][DB] | [Fc]2 [Fc]2 | [Fc]>[Fc] [FB][Fc] | [Fd]4 | [Fd]>[Fd] [Fd][Fd] | [Ge]2 [Fd]2 | %6
w: 1.~On- ward roll the|ag- es,|full of grace to|men;|Tell the joy- ful|tid- ings,|
w: 2.~Forth the sow- ers|go- ing,|bear the liv- ing|truth,|And with prayer are|sow- ing|
w: 3.~Join your hap- py|voic- es|in the song we|sing;|Christ, the low- ly|Sav- ior,|
 [=Ec]>[EB] [EA][EB] | [Fc]4 | [DB]>[DB] [DB][DB] | [Fc]2 [Fc]2 | [Fc]>[Fc] [FB][Fc] | [Fd]4 | %12
w: Christ will come a-|gain.|Sing a- loud the|an- them,|shout the tri- umph|song.|
w: in the heart of|youth.|Showers of grace are|fall- ing,|morn- ing, night and|noon;|
w: is th’ex- alt- ed|king.|Lift the joy- ful|chor- us,|up to Heav- en’s|dome;|
 [DB]>[DB] [Ec][Fd] | [Ge]2 [Fd]2 | F>F [=EG][_EA] | [DB]4 ||"^Refrain" [Fc]>[Fc] [=Ec][Ec] | %17
w: All earth’s teem- ing|na- tions|shall to Christ be-|long.||
w: All the earth is|bloom- ing,|har- vest will be|soon.|On- ward roll the|
w: Soon we’ll blend our|prais- es|in the har- vest|home.||
 [Fc]2 [Fc]2 | [^Fd]>[Fd] [Gd][Gd] | [^Fd]4 | [GB]>[GB] [Gc][Gd] | e2 [Fd]2 | F>F [=EG][_EA] | %23
w: ||||||
w: ag- es,|full of grace to|men;|Tell the joy- ful|tid- ings,|sing the glad re-|
w: ||||||
 [DB]4 |] %24
w: |
w: frain.|
w: |
V:2
 x4 | x4 | x4 | x4 | x4 | x4 | x4 | x4 | x4 | x4 | x4 | x4 | x4 | x4 | F>F x2 | x4 || x4 | x4 | %18
 x4 | x4 | x4 | (GF) x2 | F>F x2 | x4 |] %24
V:3
 [B,,F,]>[B,,F,] [B,,F,][B,,B,] | [F,A,]2 [F,A,]2 | [F,A,]>[F,A,] [F,G,][F,A,] | [B,,B,]4 | %4
 [B,,B,]>[B,,B,] [B,,B,][B,,B,] | [B,,B,]2 [B,,B,]2 | [C,G,]>[C,C] [C,C][C,C] | [F,A,]4 | %8
 [B,,F,]>[B,,F,] [B,,F,][B,,B,] | [F,A,]2 [F,A,]2 | [F,A,]>[F,A,] [F,G,][F,A,] | [B,,B,]4 | %12
 [B,,F,]>[B,,F,] [B,,F,][B,,B,] | [B,,B,]2 [B,,B,]2 | [D,B,]>[D,B,] [C,C][F,C] | [B,,B,]4 || %16
 [F,A,]>[F,A,] [C,G,][C,G,] | [F,A,]2 [F,A,]2 | [D,A,]>[D,A,] [G,B,][G,B,] | [D,A,]4 | %20
 [G,B,]>[F,B,] [E,B,][D,B,] | (G,A,) [B,,B,]2 | [D,B,]>[D,B,] [C,C][F,C] | [B,,B,]4 |] %24
V:4
 x4 | x4 | x4 | x4 | x4 | x4 | x4 | x4 | x4 | x4 | x4 | x4 | x4 | x4 | x4 | x4 || x4 | x4 | x4 | %19
 x4 | x4 | C,2 x2 | x4 | x4 |] %24

